X:1
T:Title
%%score { ( 1 5 6 ) | ( 2 3 4 ) }
L:1/8
Q:1/4=100
M:6/8
K:Ab
V:1 treble nm="Grand Piano"
V:5 treble 
V:6 treble 
V:2 bass 
V:3 bass 
V:4 bass 
V:1
 [A,C]D=D EFG | B3 A3 | [DF]F[DF] [Fd]2 [Ec] | [DB]6 | .G2 B [DF]G[DF] | [DF]3 [CE]3 | %6
w: Ira~B.~Wilson * * * * *||||||
 =D-[D-F][D-G] [D-A][D-B][Dc] | [DB]6 | [Ec]3 .[Bd]3 | [ce]3 [Ec]3 | [Ec][Fc][Gc] [Ac][Bd][ce] | %11
w: |||||
 [eg]3 [df]3 | [df]3 .[=Ae]3 | [Bd]3 [Fd]3 | [Fd]dd ddd | [Ge]2 [Fd] [Ge]2 [Fd] | [Ec]3 .[Bd]3 | %17
w: ||||||
 [ce]3 [Ec]3 | [Ec][Fc][Gc] [Ac][Bd][ce] | [eg]3 [df]3 | [c=e][Ge][Ae] [Be][ce][Ge] | %21
w: ||||
 [Af]3 z3[Q:1/4=97][Q:1/4=94][Q:1/4=91][Q:1/4=88][Q:1/4=84][Q:1/4=81][Q:1/4=78] | %22
w: |
[M:7/8] z z2 [ce]2 z2 |[M:3/4] [Ac]6 |] %24
w: ||
V:2
 z3 =C3 | z2 E, A,2 E, | z DA, =A,2 F, | B,,2 F, B,2 F, | z AE, z EE, | A,,2 E, A,2 E, | %6
 z3 z2 A,- | A,3 z3 | A,,E,E, [E,A,C][E,A,][E,A,C] | A,,E,E, [E,A,C]E,E, | %10
 A,,[E,A,C][E,A,C] [E,A,C][E,A,C][E,A,C] | B,,F,F, [F,B,D]F,F, | B,,F,F, C,F,[F,=A,C] | %13
 D,F,F, [F,B,D]F,F, | B,,[K:treble][A,B,=D=E][A,B,DF] [A,B,DA][A,B,DG][A,B,DF] | E,,E,E, B,2 E, | %16
 A,,E,E, [E,A,C][E,A,][E,A,C] | A,,E,E, [E,A,C]E,E, | A,,[E,A,C][E,A,C] [E,A,C][E,A,C][E,A,C] | %19
 B,,F,F, [F,B,D]F,F, | G,,[=E,B,C][E,B,C] [E,B,C][E,B,C][E,B,C] | F,,F,F, D,[F,A,D][F,A,D] | %22
[M:7/8] z [E,A,C]2 z E,3[K:treble] |[M:3/4][K:bass] A,,E, C .A,3 |] %24
V:3
 z B,[E,_C] A,2 E, | C,6 | .D,3 z3 | x6 | .E,,3 .B,3 | x6 | z A,G, F, .G,2 | z F,_G, .=G,3 | x6 | %9
 x6 | x6 | x6 | x6 | x6 | x[K:treble] x5 | x6 | x6 | x6 | x6 | x6 | x6 | x6 | %22
[M:7/8] E,, z A E,, z[K:treble] B2 |[M:3/4][K:bass] x6 |] %24
V:4
 A,,6 | x6 | x6 | x6 | x6 | x6 | B,,6 | E,6 | x6 | x6 | x6 | x6 | x6 | x6 | x[K:treble] x5 | x6 | %16
 x6 | x6 | x6 | x6 | x6 | x6 |[M:7/8] x5[K:treble] x2 |[M:3/4][K:bass] x6 |] %24
V:5
 x6 | E6 | x6 | x6 | D3 z3 | x6 | .F,3 z3 | x6 | z [A,C][A,C] z C[Ac] | z [A,C][A,C] z [A,C][A,C] | %10
 x6 | z [B,D][B,D] z [B,D][B,D] | z [B,D][B,D] z [=A,C][ce] | z [B,D][B,D] z [B,D][B,D] | x6 | x6 | %16
 z [A,C][A,C] z C[Ac] | z [A,C][A,C] z [A,C][A,C] | x6 | z [B,D][B,D] z [B,D][B,D] | x6 | %21
 z [A,C][A,C] [Af][Ge][Fd] |[M:7/8] [Ec][Fc]c z2 d2 |[M:3/4] z2 z .E3 |] %24
V:6
 x6 | x6 | x6 | x6 | x6 | x6 | x6 | x6 | x6 | x6 | x6 | x6 | x6 | x6 | x6 | x6 | x6 | x6 | x6 | %19
 x6 | x6 | x6 |[M:7/8] z z z2 [G,D]3 |[M:3/4] x6 |] %24

